src/22/panel/qnapi-panel.svg

<svg xmlns="http://www.w3.org/2000/svg" width="22" height="22" version="1.1">
 <defs>
  <style id="current-color-scheme" type="text/css">
   .ColorScheme-Text { color:#dfdfdf; } .ColorScheme-Highlight { color:#5294e2; }
  </style>
 </defs>
 <path style="fill:currentColor" class="ColorScheme-Text" d="m 3.8886719,4.0000002 c -0.49249,0 -0.888672,0.3903 -0.888672,0.875 l 0,11.1249998 c 0,0.48475 0.396442,0.98462 0.888672,1 L 12,17 l 1.5,2 1.5,-2 3.111328,0 C 18.603328,17 19,16.485 19,16 L 19,4.8750002 c 0,-0.4847 -0.395672,-0.875 -0.888672,-0.875 l -14.2226561,0 z m 2.111328,3 10.0000001,0 0,1 -10.0000001,0 0,-1 z M 5.9999999,10 16,10 l 0,1 -10.0000001,0 0,-1 z m 0,3 L 12,13 l 0,1 -6.0000001,0 0,-1 z"/>
</svg>

<svg xmlns="http://www.w3.org/2000/svg" width="22" height="22"><defs><style id="current-color-scheme" type="text/css"></style></defs><path d="M3.889 4A.88.88 0 0 0 3 4.875V16c0 .485.396.985.889 1H12l1.5 2 1.5-2h3.111c.492 0 .889-.515.889-1V4.875A.88.88 0 0 0 18.111 4H3.89zM6 7h10v1H6V7zm0 3h10v1H6v-1zm0 3h6v1H6v-1z" fill="currentColor" color="#dfdfdf"/></svg>
